X: 29
T:Gammal Schottis
O:France
M:2/4
L:1/8
Q:1/4=160
K:FDor
C|:FEFE|F2 e2|c2c2|G2B2|[1 A2A2|F2F2|GFGE|C3C:|[2 AGAF|GFGE|F4-|F4|
